X:48
T:The Fasu Groove
C:copyright (c) 2002 R. S. Doiel, all rights reserved
Q:1/4=90
M:7/8
L:1/8
V:1 clef=treble
I:octave=0
K:G
|: DAG DAGF | DAG DAGF| BG AF GFE | BG AF DEF :|
dA BG BAB | dA BG GFG | dA BG BAB | dA BG GFE |]

